public/img/old-svg/icn-arrows.svg

<svg width="15" height="13" viewBox="0 0 15 13" fill="none" xmlns="http://www.w3.org/2000/svg">
<path d="M2.2342 2.59064L3.59781 1.23272C3.75446 1.07656 3.91173 0.9241 4.06653 0.763619C4.25957 0.567955 4.27191 0.309333 4.09922 0.130334C3.92653 -0.0486643 3.65517 -0.045578 3.45535 0.153789C2.60795 0.999815 1.76157 1.84687 0.916231 2.69495C0.713941 2.89802 0.712708 3.14739 0.916231 3.35046C1.76116 4.19895 2.60753 5.04601 3.45535 5.89162C3.65517 6.09099 3.92222 6.09901 4.09922 5.91631C4.27623 5.73361 4.25957 5.47498 4.05728 5.27191C3.49112 4.70447 2.92433 4.13743 2.35693 3.57081C2.32534 3.54468 2.29126 3.52174 2.25517 3.5023L2.27799 3.46465C2.32055 3.46465 2.3631 3.45662 2.40627 3.45662L14.0411 3.45477C14.1085 3.45834 14.1761 3.45461 14.2427 3.44366C14.3448 3.4204 14.435 3.36081 14.4964 3.27598C14.5579 3.19115 14.5864 3.08686 14.5768 2.98253C14.5671 2.87819 14.5199 2.78093 14.4439 2.70884C14.368 2.63674 14.2684 2.59474 14.1638 2.59064C13.964 2.58261 13.7629 2.59064 13.5625 2.59064H2.2342Z" fill="#DC3178"/>
<path d="M13.0655 8.63922H1.32034C0.967563 8.63922 0.765272 8.79908 0.765272 9.07499C0.765272 9.35089 0.968796 9.50705 1.32527 9.50705H13.1173C12.7935 9.8274 12.5006 10.1138 12.2119 10.4027C11.9023 10.7109 11.594 11.0195 11.2868 11.3285C11.087 11.5297 11.0765 11.7951 11.2572 11.9735C11.4379 12.1519 11.6994 12.1377 11.9011 11.9359C12.7403 11.096 13.5793 10.2556 14.418 9.41447C14.6394 9.19288 14.6376 8.94907 14.4149 8.72563L11.9079 6.21657C11.6988 6.00732 11.4355 5.99128 11.2529 6.17645C11.0704 6.36162 11.0901 6.62086 11.301 6.83257C11.8643 7.39672 12.4278 7.96026 12.9915 8.52318C13.0228 8.54979 13.0562 8.57374 13.0914 8.59478L13.0655 8.63922Z" fill="#F6B22E"/>
</svg>

<svg width="15" height="13" viewBox="0 0 15 13" fill="none" xmlns="http://www.w3.org/2000/svg"><path d="M2.234 2.59l1.364-1.357c.156-.156.314-.309.469-.47.193-.195.205-.454.032-.633-.172-.179-.444-.176-.644.024L.916 2.694c-.202.204-.203.453 0 .656.845.849 1.692 1.696 2.54 2.542.2.199.466.207.643.024.177-.182.16-.441-.042-.644a908.863 908.863 0 00-1.7-1.701.624.624 0 00-.102-.069l.023-.037c.043 0 .085-.008.128-.008l11.635-.002c.067.003.135 0 .202-.011a.432.432 0 00-.08-.853c-.199-.008-.4 0-.6 0H2.233z" fill="#DC3178"/><path d="M13.066 8.64H1.32c-.352 0-.555.16-.555.435 0 .276.204.432.56.432h11.792c-.324.32-.616.607-.905.896-.31.308-.618.617-.925.925-.2.202-.21.467-.03.646.18.178.442.164.644-.038.84-.84 1.678-1.68 2.517-2.522.221-.221.22-.465-.003-.688l-2.507-2.51c-.21-.209-.473-.225-.655-.04-.183.186-.163.445.048.657l1.69 1.69c.032.027.065.05.1.072l-.025.044z" fill="#F6B22E"/></svg>
